src/assets/Group86.svg

<svg width="34" height="34" viewBox="0 0 34 34" fill="none" xmlns="http://www.w3.org/2000/svg">
<rect width="34" height="34" rx="17" fill="white"/>
<g clip-path="url(#clip0_297_772)">
<path d="M25.9998 11.7044C25.3258 11.9889 24.6109 12.1756 23.8788 12.2584C24.6413 11.823 25.2268 11.1335 25.5025 10.312C24.7776 10.7218 23.9845 11.0105 23.1575 11.1657C22.4839 10.482 21.5242 10.0547 20.4619 10.0547C18.4225 10.0547 16.7689 11.6299 16.7689 13.5728C16.7689 13.8486 16.8016 14.117 16.8646 14.3746C13.7954 14.2278 11.0743 12.8272 9.25287 10.6987C8.93506 11.2183 8.75295 11.8227 8.75295 12.4674C8.75295 13.688 9.40496 14.7648 10.3958 15.3957C9.80936 15.3782 9.23582 15.2273 8.72307 14.9556C8.72286 14.9704 8.72286 14.9851 8.72286 14.9999C8.72286 16.7045 9.99579 18.1265 11.6851 18.4497C11.1413 18.5906 10.5709 18.6112 10.0174 18.5099C10.4873 19.9077 11.8512 20.9248 13.4671 20.9532C12.2033 21.8968 10.6109 22.4593 8.88078 22.4593C8.58265 22.4593 8.28875 22.4426 7.99983 22.4101C9.63411 23.4083 11.5752 23.9908 13.6607 23.9908C20.4534 23.9908 24.1678 18.6299 24.1678 13.9808C24.1678 13.8282 24.1643 13.6765 24.1571 13.5256C24.8801 13.0277 25.5041 12.411 25.9998 11.7044Z" fill="#192031"/>
</g>
<defs>
<clipPath id="clip0_297_772">
<rect width="18" height="14" fill="white" transform="translate(7.99983 10)"/>
</clipPath>
</defs>
</svg>

<svg xmlns="http://www.w3.org/2000/svg" width="34" height="34" fill="none"><rect width="34" height="34" fill="#fff" rx="17"/><g clip-path="url(#a)"><path fill="#192031" d="M26 11.704a7.7 7.7 0 0 1-2.121.554 3.56 3.56 0 0 0 1.624-1.946 7.6 7.6 0 0 1-2.346.854 3.78 3.78 0 0 0-2.695-1.111c-2.04 0-3.693 1.575-3.693 3.518q0 .415.096.802c-3.07-.147-5.79-1.548-7.612-3.676-.318.52-.5 1.124-.5 1.768 0 1.221.652 2.298 1.643 2.929a3.8 3.8 0 0 1-1.673-.44V15c0 1.704 1.273 3.127 2.962 3.45a3.9 3.9 0 0 1-1.668.06c.47 1.398 1.834 2.415 3.45 2.443a7.65 7.65 0 0 1-4.586 1.506q-.447 0-.881-.049a10.83 10.83 0 0 0 5.66 1.58c6.793 0 10.508-5.36 10.508-10.01a10 10 0 0 0-.01-.454A7.3 7.3 0 0 0 26 11.704"/></g><defs><clipPath id="a"><path fill="#fff" d="M8 10h18v14H8z"/></clipPath></defs></svg>
